client/src/img/FacebookIcon.svg

<svg width="48" height="48" viewBox="0 0 48 48" fill="none" xmlns="http://www.w3.org/2000/svg">
    <path d="M48 24C48 10.7438 37.2562 0 24 0C10.7438 0 0 10.7438 0 24C0 35.9813 8.775 45.9094 20.25 47.7094V30.9375H14.1562V24H20.25V18.7125C20.25 12.6984 23.8313 9.375 29.3156 9.375C31.9406 9.375 34.6875 9.84375 34.6875 9.84375V15.75H31.6594C28.6781 15.75 27.75 17.6016 27.75 19.5V24H34.4062L33.3422 30.9375H27.75V47.7094C39.225 45.9094 48 35.9813 48 24Z" fill="#1877F2"/>
    <path d="M33.3422 30.9375L34.4062 24H27.75V19.5C27.75 17.6016 28.6781 15.75 31.6594 15.75H34.6875V9.84375C34.6875 9.84375 31.9406 9.375 29.3156 9.375C23.8313 9.375 20.25 12.6984 20.25 18.7125V24H14.1562V30.9375H20.25V47.7094C21.4734 47.9016 22.725 48 24 48C25.275 48 26.5266 47.9016 27.75 47.7094V30.9375H33.3422Z" fill="white"/>
    </svg>

<svg width="48" height="48" fill="none" xmlns="http://www.w3.org/2000/svg"><path d="M48 24C48 10.744 37.256 0 24 0S0 10.744 0 24c0 11.981 8.775 21.91 20.25 23.71V30.936h-6.094V24h6.094v-5.288c0-6.014 3.581-9.337 9.066-9.337 2.625 0 5.372.469 5.372.469v5.906h-3.029c-2.98 0-3.909 1.852-3.909 3.75V24h6.656l-1.064 6.938H27.75v16.771C39.225 45.91 48 35.981 48 24z" fill="#1877F2"/><path d="M33.342 30.938L34.406 24H27.75v-4.5c0-1.898.928-3.75 3.91-3.75h3.027V9.844s-2.746-.469-5.371-.469c-5.485 0-9.066 3.323-9.066 9.337V24h-6.094v6.938h6.094v16.771c1.223.193 2.475.291 3.75.291s2.527-.098 3.75-.29V30.936h5.592z" fill="#fff"/></svg>
